docs/img/svg/logo.svg

<svg width="50" height="47" viewBox="0 0 50 47" fill="none" xmlns="http://www.w3.org/2000/svg">
<path fill-rule="evenodd" clip-rule="evenodd" d="M23.8435 42.3096V46.0338H49L24.9907 2L1 46.0338H21.5305V45.5438H1.79568L24.9907 2.98005L48.1858 45.5438H24.2968V42.339C24.1488 42.3292 23.9915 42.3194 23.8435 42.3096ZM16.6731 33.0971C18.1257 37.6838 22.6592 40.3201 27.1002 39.1636C31.532 37.9974 34.3909 33.4303 33.66 28.6575C32.9291 23.8846 28.8581 20.4936 24.3061 20.8758V37.1937C24.1488 37.1741 24.0008 37.1545 23.8435 37.1251V20.425C28.6731 19.7782 33.1511 23.2182 34.0671 28.285C34.983 33.3519 32.0409 38.3012 27.3223 39.6047C22.613 40.9081 17.7556 38.1052 16.229 33.2147C14.7024 28.3144 17.0247 23.0026 21.5305 21.0718V21.6011C17.33 23.5024 15.2205 28.5105 16.6731 33.0971Z" fill="white" stroke="white" stroke-miterlimit="10"/>
</svg>

<svg width="50" height="47" viewBox="0 0 50 47" fill="none" xmlns="http://www.w3.org/2000/svg"><path fill-rule="evenodd" clip-rule="evenodd" d="M23.843 42.31v3.724H49L24.99 2 1 46.034h20.53v-.49H1.796L24.99 2.98l23.195 42.564h-23.89v-3.205l-.453-.03zm-7.17-9.213c1.453 4.587 5.986 7.223 10.427 6.067 4.432-1.167 7.29-5.734 6.56-10.507-.73-4.772-4.802-8.163-9.354-7.781v16.318a7.522 7.522 0 01-.463-.069v-16.7c4.83-.647 9.308 2.793 10.224 7.86.916 5.067-2.026 10.016-6.745 11.32-4.709 1.303-9.566-1.5-11.093-6.39-1.527-4.9.796-10.212 5.302-12.143v.53c-4.201 1.9-6.31 6.909-4.858 11.495z" fill="#fff" stroke="#fff" stroke-miterlimit="10"/></svg>
